src/assets/2018.svg

<svg width="2386" height="2132" fill="none" xmlns="http://www.w3.org/2000/svg">
  <g filter="url(#filter0_d)">
    <path d="M1614.46 851.334c-62-23.96 20.53-103.449-129.98-198.192C1263.03 513.733 350.734.776 350.734.776L25.602 705.941S813.516 1288.7 917.659 1344.23c102.871 54.86 269.361 9.65 303.671.33l1.21-.33c31.4-8.51 67.57-15.51 67.57 27.01s-119.31 148.37-48.1 219.24c71.21 70.87 196.02 63.64 288.81 103.67 92.79 40.02 32.37 216.86 73.71 267.3 41.34 50.44 167.34 140.6 259.56 70.3s68.39-172.86 110.11-196.21c41.71-23.34 175.57 46.89 212.26-12.31 36.68-59.2-43.29-132.26 25.04-132.26s94.16-8.34 119.6-39.32c25.44-30.98 35.07-93.73 25.09-131.07-9.99-37.34-21.03-51.58-38.56-79.83-17.53-28.26-54.91-18.65-29.02-69.51 25.9-50.86 110.82-107.62 42.49-164.83-68.33-57.21-140.13 2.79-180.97-54.02-40.84-56.8 11.34-104.86-90.08-108.42-101.42-3.57-230.03 48.37-266.71 33.36-36.69-15.01-19.08-125.907-46.51-165.228-27.43-39.32-70.36-36.809-132.37-60.768z" fill="#fff"/>
  </g>
  <defs>
    <filter id="filter0_d" x=".602" y=".776" width="2384.46" height="2130.78" filterUnits="userSpaceOnUse" color-interpolation-filters="sRGB">
      <feFlood flood-opacity="0" result="BackgroundImageFix"/>
      <feColorMatrix in="SourceAlpha" values="0 0 0 0 0 0 0 0 0 0 0 0 0 0 0 0 0 0 127 0"/>
      <feOffset dy="49"/>
      <feGaussianBlur stdDeviation="12.5"/>
      <feColorMatrix values="0 0 0 0 0 0 0 0 0 0 0 0 0 0 0 0 0 0 0.25 0"/>
      <feBlend in2="BackgroundImageFix" result="effect1_dropShadow"/>
      <feBlend in="SourceGraphic" in2="effect1_dropShadow" result="shape"/>
    </filter>
  </defs>
</svg>

<svg width="2386" height="2132" viewBox="0 0 2386 2132" fill="none" xmlns="http://www.w3.org/2000/svg">
<g filter="url(#filter0_d)">
<path d="M1614.46 851.334C1552.46 827.374 1634.99 747.885 1484.48 653.142C1263.03 513.733 350.734 0.776367 350.734 0.776367L25.6016 705.941C25.6016 705.941 813.516 1288.7 917.659 1344.23C1020.53 1399.09 1187.02 1353.88 1221.33 1344.56L1222.54 1344.23C1253.94 1335.72 1290.11 1328.72 1290.11 1371.24C1290.11 1413.76 1170.8 1519.61 1242.01 1590.48C1313.22 1661.35 1438.03 1654.12 1530.82 1694.15C1623.61 1734.17 1563.19 1911.01 1604.53 1961.45C1645.87 2011.89 1771.87 2102.05 1864.09 2031.75C1956.31 1961.45 1932.48 1858.89 1974.2 1835.54C2015.91 1812.2 2149.77 1882.43 2186.46 1823.23C2223.14 1764.03 2143.17 1690.97 2211.5 1690.97C2279.83 1690.97 2305.66 1682.63 2331.1 1651.65C2356.54 1620.67 2366.17 1557.92 2356.19 1520.58C2346.2 1483.24 2335.16 1469 2317.63 1440.75C2300.1 1412.49 2262.72 1422.1 2288.61 1371.24C2314.51 1320.38 2399.43 1263.62 2331.1 1206.41C2262.77 1149.2 2190.97 1209.2 2150.13 1152.39C2109.29 1095.59 2161.47 1047.53 2060.05 1043.97C1958.63 1040.4 1830.02 1092.34 1793.34 1077.33C1756.65 1062.32 1774.26 951.423 1746.83 912.102C1719.4 872.782 1676.47 875.293 1614.46 851.334Z" fill="white"/>
</g>
<defs>
<filter id="filter0_d" x="0.601562" y="0.776367" width="2384.46" height="2130.78" filterUnits="userSpaceOnUse" color-interpolation-filters="sRGB">
<feFlood flood-opacity="0" result="BackgroundImageFix"/>
<feColorMatrix in="SourceAlpha" type="matrix" values="0 0 0 0 0 0 0 0 0 0 0 0 0 0 0 0 0 0 127 0"/>
<feOffset dy="49"/>
<feGaussianBlur stdDeviation="12.5"/>
<feColorMatrix type="matrix" values="0 0 0 0 0 0 0 0 0 0 0 0 0 0 0 0 0 0 0.25 0"/>
<feBlend mode="normal" in2="BackgroundImageFix" result="effect1_dropShadow"/>
<feBlend mode="normal" in="SourceGraphic" in2="effect1_dropShadow" result="shape"/>
</filter>
</defs>
</svg>
